src/icons/svg/Validate.svg

<!-- Generated by IcoMoon.io -->
<svg version="1.1" xmlns="http://www.w3.org/2000/svg" width="20" height="24" viewBox="0 0 20 24">
<title>validate</title>
<path fill="#444" d="M9.749 0.089l-9.749 4.333v6.499c0 6.011 4.16 11.633 9.749 12.998 5.589-1.365 9.749-6.986 9.749-12.998v-6.499l-9.749-4.333zM7.582 17.419l-4.333-4.333 1.527-1.527 2.805 2.794 7.138-7.138 1.527 1.538-8.666 8.665z"></path>
</svg>

<svg width="20" height="24" viewBox="0 0 20 24" fill="none" xmlns="http://www.w3.org/2000/svg">
<path d="M9.749 0.0890045L0 4.422V10.921C0 16.932 4.16 22.554 9.749 23.919C15.338 22.554 19.498 16.933 19.498 10.921V4.422L9.749 0.0890045V0.0890045ZM7.582 17.419L3.249 13.086L4.776 11.559L7.581 14.353L14.719 7.215L16.246 8.75301L7.58 17.418L7.582 17.419Z" fill="#1C2125"/>
</svg>
